!!!SOCIAL_FUNCTION:	songs used in treatment of the sick
!!!PDT:	1918

Specific Region: Dakotas, Minnesota, Montana, Nebraska
!!!REG: Dakotas and Montana
!!!LING_GROUP: Siouan
!!!LANG: Tone
!!!OTL@ENG: A Wind from the North
!!!ONM: No. 93
**kern
*Imale
*clefF4
*k[f#c#g#]
*M3/4
*MM132
4e
8.e
16e
8.e
16e
=1||
*M2/4
4e
4c#
=2
4e
(8e
8c#)
=3
8.c#
16c#
4c#
=4||
*M3/4
4c#
8.c#
16c#
(12e
12c#)
12e
=5||
*M2/4
(8e
8B)
4A
=6
4A
8.A
16F#
=7
([2E
=8
2E_
=9
4E]
4C#)
=10||
*M3/4
*MM104
4E
8.E
16E
8.F#
16F#
=11||
*M2/4
4F#
8.E
16E
=12
4F#
(8.F#
16E)
=13
(8E
8C#)
4C#
=14
[2C#
=15
2C#_
=16
4..C#]
16e
=17
*MM132
(12e
12c#)
12c#
8.c#
16e
=18
8e
16c#
16c#
4c#
=19
8c#
16B
16A
4A
=20||
*M3/4
4c#
8.c#
16c#
(16c#
8B)
16c#
=21||
*M2/4
(16c#
8.B)
4A
=22
4A
8.A
16F#
=23
([2E
=24
2E_
=25
4E]
4C#)
=26||
*M3/4
*MM104
4E
8.F#
16F#
8.F#
16F#
=27||
*M2/4
4F#
8.E
16E
=28
4F#
(8.F#
16E)
=29
(8E
8C#)
4C#
=30
2C#
==
*-
!!!CNT: Native American -- Sioux
!!!MRD: 1911/07//-1914///
!!!OCL: Frances Densmore
!!!YOR1: Teton Sioux Music, Bulletin 61,
!!!YOR2: Bureau of American Ethnology, Smithsonian Institution
!!!PPR: Government Printing Office
!!!PPP: Washington, D.C.
!!!PDT: 1918///
!!!ENC: Craig Stuart Sapp
!!!END: 2002/03/25/
!!!EEV: 2002/03/31/
!!!AGN: Song of Personal Dreams/Song Used in Treatment of the Sick
!!!MPN@@SIO: Waha'chungka-nong'pa
!!!MPN@ENG: Two Shields
!!!TXO: Teton Sioux
!!!MLC: Standing Rock Reservation, South Dakota, United States of America
!!!ARL: 45.9/-100.7#
!!!catalog: Catalogue No. 536
!!!PPG: 275
!!!EFL: 93/245
!!!VTS: 1507680291
